icons/svg/camera-enhance.svg

﻿<?xml version="1.0" encoding="utf-8"?>
<!DOCTYPE svg PUBLIC "-//W3C//DTD SVG 1.1//EN" "http://www.w3.org/Graphics/SVG/1.1/DTD/svg11.dtd">
<svg xmlns="http://www.w3.org/2000/svg" xmlns:xlink="http://www.w3.org/1999/xlink" version="1.1" baseProfile="full" width="24" height="24" viewBox="0 0 24.00 24.00" enable-background="new 0 0 24.00 24.00" xml:space="preserve">
	<path fill="#000000" fill-opacity="1" stroke-width="0.2" stroke-linejoin="round" d="M 8.99875,2.9978L 7.1675,5L 3.99875,5C 2.9,5 2.0025,5.89875 2.0025,7.0025L 2.0025,18.9988C 2.0025,20.0975 2.9,21.0012 3.99875,21.0012L 20,21.0012C 21.0987,21.0012 22.0025,20.0975 22.0025,18.9988L 22.0025,7.0025C 22.0025,5.89875 21.0987,5 20,5L 16.8313,5L 15,2.9978M 12.0025,17.9975C 9.23875,17.9975 7.0025,15.7612 7.0025,12.9975C 7.0025,10.2387 9.23875,7.9975 12.0025,7.9975C 14.7612,7.9975 17.0025,10.2387 17.0025,12.9975C 17.0025,15.7612 14.7612,17.9975 12.0025,17.9975 Z M 12.0025,17.0025L 13.2525,14.2475L 16.0012,12.9975L 13.2525,11.7475L 12.0025,8.99875L 10.7525,11.7475L 7.9975,12.9975L 10.7525,14.2475"/>
</svg>

<svg xmlns="http://www.w3.org/2000/svg" width="24" height="24" viewBox="0 0 24 24"><path fill="#000000" fill-opacity="1" stroke-width="0.2" stroke-linejoin="round" d="M9 3L7.17 5H4c-1.1 0-2 .9-2 2v12c0 1.1.9 2 2 2h16c1.1 0 2-.9 2-2V7c0-1.1-.9-2-2-2h-3.17L15 3H9zm3 15c-2.76 0-5-2.24-5-5s2.24-5 5-5 5 2.24 5 5-2.24 5-5 5zm0-1l1.25-2.75L16 13l-2.75-1.25L12 9l-1.25 2.75L8 13l2.75 1.25z"/></svg>
